www/assets/icons/content_paste_go.svg

<svg xmlns="http://www.w3.org/2000/svg" width="24" height="24" viewBox="0 0 24 24" fill='currentColor'><path d="M4.5 6h2v3h10V6h2v6h2V6c0-1.1-.9-2-2-2h-4.18c-.42-1.16-1.52-2-2.82-2s-2.4.84-2.82 2H4.5c-1.1 0-2 .9-2 2v14c0 1.1.9 2 2 2h5v-2h-5zm7-2c.55 0 1 .45 1 1s-.45 1-1 1-1-.45-1-1 .45-1 1-1"/><path d="m17.51 14-1.42 1.41 1.58 1.58H11.5v2h6.17l-1.58 1.59 1.42 1.41 3.99-4z"/></svg>

<svg width="24" height="24" viewBox="0 0 24 24" xmlns="http://www.w3.org/2000/svg" fill='currentColor'><path d="M4.5 6H6.5V9H16.5V6H18.5V12H20.5V6C20.5 4.9 19.6 4 18.5 4H14.32C13.9 2.84 12.8 2 11.5 2C10.2 2 9.1 2.84 8.68 4H4.5C3.4 4 2.5 4.9 2.5 6V20C2.5 21.1 3.4 22 4.5 22H9.5V20H4.5V6ZM11.5 4C12.05 4 12.5 4.45 12.5 5C12.5 5.55 12.05 6 11.5 6C10.95 6 10.5 5.55 10.5 5C10.5 4.45 10.95 4 11.5 4Z"/><path d="M17.51 14L16.09 15.41L17.67 16.99H11.5V18.99H17.67L16.09 20.58L17.51 21.99L21.5 17.99L17.51 14Z"/></svg>
